X:182
T:Splittin' Fire
R:jig
C:Bruce Osborne  --  Sept. 1997
Z:abc by bosborne@kos.net
M:6/8
L:1/8
K:A
A|CB,C A,CE|Acf ecA|EGB dcB|Acf ecA|\
CB,C A,CE|Acf ece|gfe dcB|A2 -A3:|
|:A|CB,C ECE|Acf ecA|EGB gbg|aec cBA|\
CB,C ECE|Acf ece|gfe dcB|A2 -A3:|
